resources/svg/clone.svg

<svg fill="currentColor" viewBox="0 0 512 512"><path d="M0 224c0-35.3 28.65-64 64-64h64v128c0 53 42.1 96 96 96h128v64c0 35.3-28.7 64-64 64H64c-35.35 0-64-28.7-64-64V224zm224 128c-35.3 0-64-28.7-64-64V64c0-35.35 28.7-64 64-64h224c35.3 0 64 28.65 64 64v224c0 35.3-28.7 64-64 64H224z"/></svg>

<svg fill="currentColor" xmlns="http://www.w3.org/2000/svg" viewBox="0 0 512 512"><!--! Font Awesome Free 6.0.0 by @fontawesome - https://fontawesome.com License - https://fontawesome.com/license/free (Icons: CC BY 4.0, Fonts: SIL OFL 1.1, Code: MIT License) Copyright 2022 Fonticons, Inc. --><path d="M0 224C0 188.7 28.65 160 64 160H128V288C128 341 170.1 384 224 384H352V448C352 483.3 323.3 512 288 512H64C28.65 512 0 483.3 0 448V224zM224 352C188.7 352 160 323.3 160 288V64C160 28.65 188.7 0 224 0H448C483.3 0 512 28.65 512 64V288C512 323.3 483.3 352 448 352H224z"/></svg>
